!!!SOCIAL_FUNCTION:	songs connected with legends
!!!PDT:	1929
!!!OTL: No_6_Song_of_Brown_Buzzard_After_Killing_Elder_Brother.krn
!!!REG: Southwest
!!!LANG: Non-Tone
!!!LING_GROUP: Uto-Aztecan
**kern
*staff1
*clefF4
*k[b-e-a-d-]
*M2/4
8c\
=1
4c\
4c\
=2||
*M3/4
2c\
8B-\L
8A-\J
=3
4B-\
4A-\
4r
=4
4c\
4B-\
8A-\L
8F\J
=5!|:
4.A-\
8B-\
8A-\L
8F\J
=6||
*M2/4
8E-\L
8E-\J
4r
=7||
*M3/4
(4A-\
4E-\)
16F\LK
8.E-\J
=8||
*M2/4
4E-\
4E-\
=9
4E-\
12E-\L
12E-\
12E-\J
=10
[2E-\
=11
2E-\]
=12
*M3/4
4B-\
4B-\
8A-\L
8F\J
==:|!
*-
